X:6
T:Patsy Geary's
R:single jig
Z:id:hn-slide-6
M:6/8
K:D
F2A AFA|BcB A2G|F2A d2e|f3 fef|g2g fgf|
efe d2B|1 ABA AFD|E3 A2G:|2 ABA efe|d3 d2e|]
f2e f2e|f2e fga|~A3 BAF|~A3 ABd|efe efe|
efe dfa|baf afe|1 d3 d2e:|2 d3 dAG|]
</abc>
